groups/heteroaromatics/imidazole.svg

<?xml version='1.0' encoding='iso-8859-1'?>
<svg version='1.1' baseProfile='full'
              xmlns='http://www.w3.org/2000/svg'
                      xmlns:rdkit='http://www.rdkit.org/xml'
                      xmlns:xlink='http://www.w3.org/1999/xlink'
                  xml:space='preserve'
width='256px' height='256px' viewBox='0 0 256 256'>
<!-- END OF HEADER -->
<rect style='opacity:1.0;fill:#FFFFFF;stroke:none' width='256.0' height='256.0' x='0.0' y='0.0'> </rect>
<path class='bond-0 atom-0 atom-1' d='M 34.1,182.5 L 107.9,140.0' style='fill:none;fill-rule:evenodd;stroke:#000000;stroke-width:2.0px;stroke-linecap:butt;stroke-linejoin:miter;stroke-opacity:1' />
<path class='bond-1 atom-1 atom-2' d='M 107.9,140.0 L 170.9,168.1' style='fill:none;fill-rule:evenodd;stroke:#000000;stroke-width:2.0px;stroke-linecap:butt;stroke-linejoin:miter;stroke-opacity:1' />
<path class='bond-2 atom-1 atom-3' d='M 107.9,140.0 L 116.9,55.3' style='fill:none;fill-rule:evenodd;stroke:#000000;stroke-width:2.0px;stroke-linecap:butt;stroke-linejoin:miter;stroke-opacity:1' />
<path class='bond-2 atom-1 atom-3' d='M 121.6,132.1 L 128.6,65.9' style='fill:none;fill-rule:evenodd;stroke:#000000;stroke-width:2.0px;stroke-linecap:butt;stroke-linejoin:miter;stroke-opacity:1' />
<path class='bond-3 atom-3 atom-4' d='M 116.9,55.3 L 185.5,40.8' style='fill:none;fill-rule:evenodd;stroke:#000000;stroke-width:2.0px;stroke-linecap:butt;stroke-linejoin:miter;stroke-opacity:1' />
<path class='bond-4 atom-4 atom-5' d='M 213.4,60.5 L 242.8,111.5' style='fill:none;fill-rule:evenodd;stroke:#000000;stroke-width:2.0px;stroke-linecap:butt;stroke-linejoin:miter;stroke-opacity:1' />
<path class='bond-4 atom-4 atom-5' d='M 202.3,66.8 L 227.1,109.8' style='fill:none;fill-rule:evenodd;stroke:#000000;stroke-width:2.0px;stroke-linecap:butt;stroke-linejoin:miter;stroke-opacity:1' />
<path class='bond-5 atom-5 atom-2' d='M 242.8,111.5 L 199.1,159.9' style='fill:none;fill-rule:evenodd;stroke:#000000;stroke-width:2.0px;stroke-linecap:butt;stroke-linejoin:miter;stroke-opacity:1' />
<path d='M 116.5,59.5 L 116.9,55.3 L 120.3,54.6' style='fill:none;stroke:#000000;stroke-width:2.0px;stroke-linecap:butt;stroke-linejoin:miter;stroke-miterlimit:10;stroke-opacity:1;' />
<path d='M 241.3,108.9 L 242.8,111.5 L 240.6,113.9' style='fill:none;stroke:#000000;stroke-width:2.0px;stroke-linecap:butt;stroke-linejoin:miter;stroke-miterlimit:10;stroke-opacity:1;' />
<path class='atom-1' d='M55.3216,219.457 C58.0908,217.863 55.9647,214.171 53.1956,215.765 C50.4264,217.36 48.3003,213.667 51.0695,212.073 C53.8386,210.478 51.7125,206.786 48.9434,208.38 C46.1743,209.975 44.0482,206.283 46.8173,204.688 C49.5865,203.094 47.4604,199.401 44.6912,200.996 C41.9221,202.59 39.796,198.898 42.5652,197.304 C45.3343,195.709 43.2082,192.017 40.4391,193.611 C37.6699,195.206 35.5439,191.513 38.313,189.919 C41.0821,188.324 38.956,184.632 36.1869,186.227 C33.4178,187.821 31.2917,184.129 34.0608,182.534 C36.83,180.94 34.7039,177.248 31.9347,178.842 C29.1656,180.437 27.0395,176.744 29.8087,175.15 C32.5778,173.555 30.4517,169.863 27.6826,171.457 C24.9134,173.052 22.7874,169.36 25.5565,167.765 C28.3256,166.171 26.1995,162.478 23.4304,164.073 C20.6613,165.667 18.5352,161.975 21.3043,160.38 C24.0735,158.786 21.9474,155.094 19.1782,156.688 C16.4091,158.283 14.283,154.59 17.0522,152.996 C19.8213,151.401 17.6952,147.709 14.9261,149.304 C12.1569,150.898 10.0309,147.206 12.8,145.611' style='fill:none;stroke:#7F7F7F;stroke-width:2.0px;stroke-linecap:butt;stroke-linejoin:miter;stroke-opacity:1' />
<text x='173.7' y='194.7' class='atom-2' style='font-size:40px;font-style:normal;font-weight:normal;fill-opacity:1;stroke:none;font-family:sans-serif;text-anchor:start;fill:#000000' >N</text>
<text x='173.7' y='229.9' class='atom-2' style='font-size:40px;font-style:normal;font-weight:normal;fill-opacity:1;stroke:none;font-family:sans-serif;text-anchor:start;fill:#000000' >H</text>
<text x='188.3' y='57.7' class='atom-4' style='font-size:40px;font-style:normal;font-weight:normal;fill-opacity:1;stroke:none;font-family:sans-serif;text-anchor:start;fill:#000000' >N</text>
</svg>

<svg height="256" viewBox="0 0 256 256" width="256" xmlns="http://www.w3.org/2000/svg"><path d="m0 0h256v256h-256z" fill="#fff"/><g fill="none" stroke-width="2"><path d="m34.1 182.5 73.8-42.5" stroke="#000"/><path d="m107.9 140 63 28.1" stroke="#000"/><path d="m107.9 140 9-84.7" stroke="#000"/><path d="m121.6 132.1 7-66.2" stroke="#000"/><path d="m116.9 55.3 68.6-14.5" stroke="#000"/><path d="m213.4 60.5 29.4 51" stroke="#000"/><path d="m202.3 66.8 24.8 43" stroke="#000"/><path d="m242.8 111.5-43.7 48.4" stroke="#000"/><path d="m116.5 59.5.4-4.2 3.4-.7" stroke="#000" stroke-miterlimit="10"/><path d="m241.3 108.9 1.5 2.6-2.2 2.4" stroke="#000" stroke-miterlimit="10"/><path d="m55.322 219.457c2.769-1.594.643-5.286-2.126-3.692-2.77 1.595-4.896-2.098-2.126-3.692 2.769-1.595.643-5.287-2.127-3.693-2.769 1.595-4.895-2.097-2.126-3.692 2.77-1.594.643-5.287-2.126-3.692-2.769 1.594-4.895-2.098-2.126-3.692 2.769-1.595.643-5.287-2.126-3.693-2.769 1.595-4.895-2.098-2.126-3.692 2.769-1.595.643-5.287-2.126-3.692-2.769 1.594-4.895-2.098-2.126-3.693 2.769-1.594.643-5.286-2.126-3.692-2.769 1.595-4.895-2.098-2.126-3.692 2.769-1.595.643-5.287-2.126-3.693-2.77 1.595-4.896-2.097-2.126-3.692 2.769-1.594.643-5.287-2.127-3.692-2.769 1.594-4.895-2.098-2.126-3.693 2.77-1.594.643-5.286-2.126-3.692-2.769 1.595-4.895-2.098-2.126-3.692 2.769-1.595.643-5.287-2.126-3.692-2.769 1.594-4.895-2.098-2.126-3.693" stroke="#7f7f7f"/></g><text font-family="sans-serif" font-size="40" x="173.7" y="194.7">N</text><text font-family="sans-serif" font-size="40" x="173.7" y="229.9">H</text><text font-family="sans-serif" font-size="40" x="188.3" y="57.7">N</text></svg>
